img/about.svg

<svg width="1883" height="853" fill="none" xmlns="http://www.w3.org/2000/svg"><g opacity=".08" stroke="#7D869D" stroke-width="10" stroke-miterlimit="10" stroke-linecap="round"><path d="M287.44 768.827c-8.68-36.599-36.154-110.635-96.296-152.143-60.143-41.507-108.586-36.386-116.387-26.239-7.801 10.146 3.204 79.542 63.235 123.218 65.485 47.636 149.448 55.164 149.448 55.164zm-10.782-8.264C243.203 727.24 34.393 554.133 7.768 539.869"/><path d="M263.361 718.949l-30.148 2.754.094 31.841m17.947-65.534l-50.352 4.905.972 51.784m23.968-89.876l-57.011 12.435-1.803 56.52m31.556-98.517l-58.689 14.288-4.767 68.82m30.897-102.804l-55.574 11.415-5.617 59.126m10.355-88.49l-29.841 10.127-5.551 28.987"/></g><g opacity=".08" stroke="#7D869D" stroke-width="10" stroke-miterlimit="10" stroke-linecap="round"><path d="M1798.82 795.056c6.04-26.97 5.92-83.932-36.51-114.715 37.39 12.821 55.4-2.456 55.4-2.456s-48.97-21.353-67.75-52.398c14.43-7.806 35.88-2.369 45.1 7.732-6.56-66.341-113.13-83.785-143.78-61.876-30.66 21.908-53.04 86.04-31.13 121.834 21.9 35.795 18.65 56.665 18.65 56.665s18.39-12.119 15.59-46.033c5.71 42.209 30.25 62.642 42.66 64.679-13.49-24.321-4.74-51.495-3.71-49.49 35.54 69.375 105.48 76.058 105.48 76.058zm-66.17-95.159c-11.52-21.348-76.26-125.962-108.01-163.777m79.29 115.749c11.41 6.097 25.96 8.987 34.24 8.637m-36.95-12.747c1.02 2.738-8.46 26.5-2.2 38.55"/><path d="M1710.08 597.283c-11.22-2.82-27.17-2.524-38.26 4.79-4.94 3.254-13.88 16.809-14.53 30.008"/></g><g opacity=".08" stroke="#7D869D" stroke-width="10" stroke-miterlimit="10" stroke-linecap="round"><path d="M74.117 293.205c17.117 5.416 53.986 8.52 76.279-17.221-10.387 23.483-1.506 35.99-1.506 35.99s16.555-30.5 37.695-40.915c4.246 9.771-.472 23.354-7.523 28.752 43.299-.539 60.542-68.53 48.076-89.592-12.466-21.062-52.718-39.128-77.107-26.952-24.388 12.175-37.713 8.904-37.713 8.904s6.816 12.577 28.919 12.663c-27.634 1.338-42.229 16.078-44.24 23.993 16.493-7.371 33.59-.188 32.235.367-46.882 19.123-55.115 64.011-55.115 64.011zm65.28-37.507c14.46-6.266 85.778-42.318 112.025-60.752m-79.339 44.849c-4.584 7.045-7.267 16.296-7.503 21.673m10.313-23.199c-1.829.511-16.677-6.952-24.825-3.577"/><path d="M207.064 246.827c2.452-7.104 3.152-17.443-.962-25.032-1.83-3.376-10.103-9.917-18.608-11.075"/></g><path d="M1802.17 33.79c-29.57 27.526-54.85 57.77-98.53 83.184-43.67 25.414-82.74 78.637-62.2 169.017 93.54-22.823 113.69-97.561 118.87-109.731 5.18-12.169 41.86-142.47 41.86-142.47zm-.79.735c-23.18 35.029-189.05 293.091-199.73 320.631" opacity=".08" stroke="#505666" stroke-width="10" stroke-miterlimit="10" stroke-linecap="round"/></svg>

<svg width="1883" height="853" viewBox="0 0 1883 853" fill="none" xmlns="http://www.w3.org/2000/svg">
<g opacity="0.08">
<path d="M287.44 768.827C278.76 732.228 251.286 658.192 191.144 616.684C131.001 575.177 82.5582 580.298 74.7571 590.445C66.956 600.591 77.9613 669.987 137.992 713.663C203.477 761.299 287.44 768.827 287.44 768.827Z" stroke="#7D869D" stroke-width="10" stroke-miterlimit="10" stroke-linecap="round"/>
<path d="M276.658 760.563C243.203 727.24 34.3931 554.133 7.76823 539.869" stroke="#7D869D" stroke-width="10" stroke-miterlimit="10" stroke-linecap="round"/>
<path d="M263.361 718.949L233.213 721.703L233.307 753.544" stroke="#7D869D" stroke-width="10" stroke-miterlimit="10" stroke-linecap="round"/>
<path d="M251.254 688.01L200.902 692.915L201.874 744.699" stroke="#7D869D" stroke-width="10" stroke-miterlimit="10" stroke-linecap="round"/>
<path d="M225.842 654.823L168.831 667.258L167.028 723.778" stroke="#7D869D" stroke-width="10" stroke-miterlimit="10" stroke-linecap="round"/>
<path d="M198.584 625.261L139.895 639.549L135.128 708.369" stroke="#7D869D" stroke-width="10" stroke-miterlimit="10" stroke-linecap="round"/>
<path d="M166.025 605.565L110.451 616.98L104.834 676.106" stroke="#7D869D" stroke-width="10" stroke-miterlimit="10" stroke-linecap="round"/>
<path d="M115.189 587.616L85.348 597.743L79.797 626.73" stroke="#7D869D" stroke-width="10" stroke-miterlimit="10" stroke-linecap="round"/>
</g>
<g opacity="0.08">
<path d="M1798.82 795.056C1804.86 768.086 1804.74 711.124 1762.31 680.341C1799.7 693.162 1817.71 677.885 1817.71 677.885C1817.71 677.885 1768.74 656.532 1749.96 625.487C1764.39 617.681 1785.84 623.118 1795.06 633.219C1788.5 566.878 1681.93 549.434 1651.28 571.343C1620.62 593.251 1598.24 657.383 1620.15 693.177C1642.05 728.972 1638.8 749.842 1638.8 749.842C1638.8 749.842 1657.19 737.723 1654.39 703.809C1660.1 746.018 1684.64 766.451 1697.05 768.488C1683.56 744.167 1692.31 716.993 1693.34 718.998C1728.88 788.373 1798.82 795.056 1798.82 795.056Z" stroke="#7D869D" stroke-width="10" stroke-miterlimit="10" stroke-linecap="round"/>
<path d="M1732.65 699.897C1721.13 678.549 1656.39 573.935 1624.64 536.12" stroke="#7D869D" stroke-width="10" stroke-miterlimit="10" stroke-linecap="round"/>
<path d="M1703.93 651.869C1715.34 657.966 1729.89 660.856 1738.17 660.506" stroke="#7D869D" stroke-width="10" stroke-miterlimit="10" stroke-linecap="round"/>
<path d="M1701.22 647.759C1702.24 650.497 1692.76 674.259 1699.02 686.309" stroke="#7D869D" stroke-width="10" stroke-miterlimit="10" stroke-linecap="round"/>
<path d="M1710.08 597.283C1698.86 594.463 1682.91 594.759 1671.82 602.073C1666.88 605.327 1657.94 618.882 1657.29 632.081" stroke="#7D869D" stroke-width="10" stroke-miterlimit="10" stroke-linecap="round"/>
</g>
<g opacity="0.08">
<path d="M74.1174 293.205C91.2336 298.621 128.103 301.725 150.396 275.984C140.009 299.467 148.89 311.974 148.89 311.974C148.89 311.974 165.445 281.474 186.585 271.059C190.831 280.83 186.113 294.413 179.062 299.811C222.361 299.272 239.604 231.281 227.138 210.219C214.672 189.157 174.42 171.091 150.031 183.267C125.643 195.442 112.318 192.171 112.318 192.171C112.318 192.171 119.134 204.748 141.237 204.834C113.603 206.172 99.0082 220.912 96.9964 228.827C113.49 221.456 130.587 228.639 129.232 229.194C82.3495 248.317 74.1174 293.205 74.1174 293.205Z" stroke="#7D869D" stroke-width="10" stroke-miterlimit="10" stroke-linecap="round"/>
<path d="M139.397 255.698C153.857 249.432 225.175 213.38 251.422 194.946" stroke="#7D869D" stroke-width="10" stroke-miterlimit="10" stroke-linecap="round"/>
<path d="M172.083 239.795C167.499 246.84 164.816 256.091 164.58 261.468" stroke="#7D869D" stroke-width="10" stroke-miterlimit="10" stroke-linecap="round"/>
<path d="M174.893 238.269C173.064 238.78 158.216 231.317 150.068 234.692" stroke="#7D869D" stroke-width="10" stroke-miterlimit="10" stroke-linecap="round"/>
<path d="M207.064 246.827C209.516 239.723 210.216 229.384 206.102 221.795C204.272 218.419 195.999 211.878 187.494 210.72" stroke="#7D869D" stroke-width="10" stroke-miterlimit="10" stroke-linecap="round"/>
</g>
<g opacity="0.08">
<path d="M1802.17 33.7895C1772.6 61.3165 1747.32 91.5606 1703.64 116.974C1659.97 142.388 1620.9 195.611 1641.44 285.991C1734.98 263.168 1755.13 188.43 1760.31 176.26C1765.49 164.091 1802.17 33.7895 1802.17 33.7895Z" stroke="#505666" stroke-width="10" stroke-miterlimit="10" stroke-linecap="round"/>
<path d="M1801.38 34.5247C1778.2 69.5536 1612.33 327.616 1601.65 355.156" stroke="#505666" stroke-width="10" stroke-miterlimit="10" stroke-linecap="round"/>
</g>
</svg>
